dist/img/catalog/discount_decor_1.svg

<svg width="165" height="165" viewBox="0 0 165 165" fill="none" xmlns="http://www.w3.org/2000/svg">
<path d="M141.603 24.75H99.4761C95.4298 24.75 91.6263 26.3258 88.7653 29.1872L29.1869 88.7699C26.3257 91.6311 24.75 95.4351 24.75 99.4814C24.75 103.528 26.3257 107.332 29.1869 110.193L71.3131 152.321C74.2659 155.274 78.1449 156.75 82.0236 156.75C85.9023 156.75 89.7813 155.273 92.7341 152.32L152.313 92.7372C155.174 89.8757 156.75 86.072 156.75 82.0257V39.8978C156.75 31.5454 149.955 24.75 141.603 24.75ZM121.407 75.244C113.054 75.244 106.259 68.4486 106.259 60.0958C106.259 51.7431 113.054 44.9477 121.407 44.9477C129.759 44.9477 136.554 51.7431 136.554 60.0958C136.554 68.4486 129.759 75.244 121.407 75.244Z" fill="#EDF0F6"/>
<path d="M125.763 8.25H83.3983C79.3291 8.25 75.5041 9.80795 72.627 12.637L12.712 71.5456C9.83458 74.3743 8.25 78.1353 8.25 82.1359C8.25 85.265 9.22328 88.2454 11.0228 90.75C12.2182 88.4547 13.7785 86.3298 15.6868 84.4541L75.6016 25.5456C80.3966 20.8312 86.7719 18.2346 93.5535 18.2346H135.918C137.395 18.2346 138.841 18.3663 140.25 18.6058C138.264 12.6026 132.522 8.25 125.763 8.25Z" fill="#EDF0F6"/>
</svg>

<svg width="165" height="165" viewBox="0 0 165 165" fill="none" xmlns="http://www.w3.org/2000/svg"><path d="M141.603 24.75H99.476c-4.046 0-7.85 1.576-10.71 4.437L29.185 88.77a15.049 15.049 0 00-4.435 10.71 15.05 15.05 0 004.437 10.712l42.126 42.128a15.099 15.099 0 0010.71 4.429 15.1 15.1 0 0010.711-4.43l59.579-59.583a15.05 15.05 0 004.437-10.711V39.898c0-8.353-6.795-15.148-15.147-15.148zm-20.196 50.494c-8.353 0-15.148-6.795-15.148-15.148s6.795-15.148 15.148-15.148c8.352 0 15.147 6.795 15.147 15.148s-6.795 15.148-15.147 15.148z" fill="#EDF0F6"/><path d="M125.763 8.25H83.398c-4.069 0-7.894 1.558-10.771 4.387L12.712 71.546c-2.877 2.828-4.462 6.59-4.462 10.59 0 3.129.973 6.11 2.773 8.614a25.03 25.03 0 014.664-6.296l59.915-58.908c4.795-4.715 11.17-7.311 17.951-7.311h42.365c1.477 0 2.923.131 4.332.37-1.986-6.002-7.728-10.355-14.487-10.355z" fill="#EDF0F6"/></svg>
